packages/foundations/assets/icons/functional/images/transportation/electric_scooter_28.svg

<svg width="28" height="28" viewBox="0 0 28 28" fill="none" xmlns="http://www.w3.org/2000/svg">
<g clip-path="url(#clip0_187_971)">
<path fill-rule="evenodd" clip-rule="evenodd" d="M23.4463 4.50329L21.5553 4.89611C20.4387 5.12806 19.6961 6.17464 19.8273 7.29123L21.105 14.1973C19.6505 15.0399 18.5332 15.9023 17.7228 16.8091C16.9946 17.6239 16.6262 18.7018 16.5956 20.0156L7.844 20.0162C7.63176 18.5319 6.35558 17.3912 4.8125 17.3912C3.1215 17.3912 1.75 18.7624 1.75 20.4537C1.75 22.1451 3.1215 23.5162 4.8125 23.5162C6.034 23.5162 7.08825 22.8015 7.5799 21.7673C14.1934 21.7673 17.5002 21.7662 17.5002 21.7662C17.7712 21.7673 18.4064 21.5584 18.3718 20.8147C18.257 19.5069 18.4894 18.5775 19.0276 17.9753C19.609 17.3247 20.4145 16.6759 21.4443 16.0341L21.7625 17.7424C20.789 18.2551 20.125 19.2769 20.125 20.4537C20.125 22.1451 21.4965 23.5162 23.1875 23.5162C24.8791 23.5162 26.25 22.1454 26.25 20.4537C26.25 18.8609 25.0345 17.5524 23.4803 17.4051L21.57 7.11775C21.5314 6.90975 21.6469 6.70822 21.8367 6.632L23.8022 6.21671C24.2754 6.11842 24.5821 5.60481 24.4749 5.16172C24.3677 4.71862 23.9384 4.39988 23.4463 4.50329ZM23.1875 19.1412C23.9126 19.1412 24.5 19.7286 24.5 20.4537C24.5 21.1789 23.9126 21.7662 23.1875 21.7662C22.4629 21.7662 21.875 21.1785 21.875 20.4537C21.875 19.729 22.4629 19.1412 23.1875 19.1412ZM4.8125 19.1412C5.53763 19.1412 6.125 19.7286 6.125 20.4537C6.125 21.1789 5.53763 21.7662 4.8125 21.7662C4.08789 21.7662 3.5 21.1785 3.5 20.4537C3.5 19.729 4.08789 19.1412 4.8125 19.1412ZM3.50054 13.8913C3.01729 13.8913 2.62554 14.283 2.62554 14.7663C2.62554 15.2495 3.01729 15.6413 3.50054 15.6413C6.16287 15.6413 7.30051 16.1549 7.94239 17.7228C8.12548 18.17 8.63645 18.3842 9.08368 18.2011C9.5309 18.018 9.74502 17.507 9.56193 17.0598C8.59769 14.7045 6.79653 13.8913 3.50054 13.8913Z" fill="#1A1C1F"/>
</g>
<defs>
<clipPath id="clip0_187_971">
<rect width="28" height="28" fill="white"/>
</clipPath>
</defs>
</svg>

<svg xmlns="http://www.w3.org/2000/svg" width="28" height="28" fill="none"><g clip-path="url(#a)"><path fill="#1A1C1F" fill-rule="evenodd" d="m23.446 4.503-1.89.393a2.19 2.19 0 0 0-1.729 2.395l1.278 6.906c-1.454.843-2.572 1.705-3.382 2.612-.728.815-1.097 1.893-1.127 3.207H7.844a3.063 3.063 0 1 0-.264 1.751h9.92c.271 0 .906-.209.872-.952-.115-1.308.117-2.238.656-2.84.581-.65 1.387-1.3 2.416-1.94l.319 1.707a3.062 3.062 0 1 0 1.717-.337L21.57 7.118a.44.44 0 0 1 .267-.486l1.965-.415c.473-.099.78-.612.673-1.055a.87.87 0 0 0-1.029-.659m-.259 14.638a1.312 1.312 0 1 1 .001 2.625 1.312 1.312 0 0 1 0-2.625m-18.374 0a1.312 1.312 0 1 1 0 2.625 1.312 1.312 0 0 1 0-2.625M3.5 13.891a.875.875 0 1 0 0 1.75c2.662 0 3.8.514 4.441 2.082a.875.875 0 0 0 1.62-.663C8.598 14.705 6.797 13.89 3.5 13.89" clip-rule="evenodd"/></g><defs><clipPath id="a"><path fill="#fff" d="M0 0h28v28H0z"/></clipPath></defs></svg>
